X: 1
T:The Fingerlop  "CYMRU"
M:6/8
L:1/8
Q:80
C:R Mathieson
S:Jig
K:HP
:| | {g}Aa{a}aec{G}A|
{g}G{d}Bg{a}edB|
{g}Aa{a}aec{G}A|  !
{g}G{d}Bd{g}e/2g3/2B| |
{g}Ga{a}aec{G}A|
{g}G{d}Bg{a}edB|  !
{g}Ga{a}adec|
{g}G{d}cea{a}a{a}a:| |
Aa{a}aeac|  !
{g}dec{g}B{d}G{e}G|
{g}Aa{a}adeB|
{g}G{d}B{g}e/2g3/2B|  !
